assets/collections/sfc/logo_ntscj_color.svg

<svg enable-background="new 0 0 3839 637.6" version="1.1" viewBox="0 0 3839 637.6" xml:space="preserve" xmlns="http://www.w3.org/2000/svg">
<path fill="#FDDB00" d="m520.2 457.8c164.4 0 186.2 71 186.2 96.3 0 29.8-46.4 83.5-186.2 83.5-144.6 0-179.8-60.5-179.8-83.5 0-24.1 12.2-96.3 179.8-96.3z"/><path fill="#73B744" d="m173.4 290.8c164.4 0 179.8 78.6 179.8 96.3s-33.6 83.5-173.4 83.5c-144.6 0-179.8-65.7-179.8-83.5s5.8-96.3 173.4-96.3z"/><path fill="#E11F26" d="m565.2 335.8s2.7-143.4 134.9-160.6 188.1 93.2 192.7 115.6c42.7 208.2-147.8 218.7-147.8 218.4-12.1-183-179.8-173.4-179.8-173.4z"/><path fill="#25A4DD" d="m231.2 162.4s2.7-143.4 134.9-160.6 188 93.2 192.6 115.6c42.9 208.2-147.7 218.7-147.7 218.4-12-183-179.8-173.4-179.8-173.4z"/><path d="m2095.2 377.7v33.4h135.7v62.3h-135.7v33.4h161.6v-129.1h-25.9zm-332.1 57.9h114.2c0 12.6-2.2 17.1-13.3 17.1h-44.5v12.6c0 5.9-1.5 11.9-15.6 11.9h-32.6v29.7h35.6c17.1 0 29.7-11.9 29.7-27.4v-2.2h27.4c19.3 0 33.4-14.1 33.4-34.8v-34.1h-134.2v27.2zm152-31.2 161.6 17.8v-28.9l-161.6-17.8zm0 42.3 161.6 17.8v-28.2l-161.6-17.8zm0 42.3 161.6 17.8v-28.9l-161.6-17.9zm-803.7-65.3v-46h-134.2v33.4h109.7v12.6c0 30.4-27.4 48.2-73.4 50.4h-41.5v33.4h45.2c28.9 0 51.9-11.9 67.5-27.4l18.5 27.4h39.3l-40.8-50.4c6-11.2 9.7-23 9.7-33.4zm1163.2-12.6h98.6v-33.4h-98.6zm138.7 7.4c0 43.7-21.5 54.9-57.1 54.9h-81.6v33.4h91.2c48.9 0 69.7-31.9 69.7-69.7v-60.1h-22.2zm-1110.6 8.2c0 28.2-11.9 47.4-53.4 47.4v33.4c71.2 0 77.1-45.2 77.1-75.6v-54.1h-24.5zm69.7 0v-48.9h-25.2v54.1c0 29.7 8.2 75.6 79.3 75.6v-33.4c-42.3-0.7-54.1-19.3-54.1-47.4zm220.2-15.6h130.4v20.8c0 34.1-22.2 41.5-69.7 41.5h-51.2v33.4h71.2c34.8 0 73.4-28.2 73.4-71.2v-58.6h-155v34.1zm-462.7 45.2h117.1v-28.9h-117.1zm301.8 0h117.9v-28.9h-117.9zm-3-57.8c0 13.3-11.1 24.5-24.5 24.5s-24.5-11.1-24.5-24.5c0-13.3 11.1-24.5 24.5-24.5 14.1 0 24.5 11.2 24.5 24.5zm-13.3 0c0-5.9-5.2-11.1-11.1-11.1s-11.1 5.2-11.1 11.1 5.2 11.1 11.1 11.1c5.9-0.7 11.1-5.2 11.1-11.1zm-391.5-159.4h83c30.4 0 31.1 45.2 0 45.2h-124.5v33.4h160.9c64.5 0 65.2-108.2-3-108.2h-83.8c-33.4 0-33.4-41.5 0-41.5h119.4v-33.4h-152.7c-71.2 0-69 104.5 0.7 104.5zm189.8-104.5v115.7c0 42.3 30.4 66.7 62.3 66.7h139.4v-182.4h-51.9v149h-60.8c-26.7 0-40-20.8-40-37.1v-112h-49zm370 114.9h-82.3v66.7h-51.9v-185.3h134.2c92.6 0 96.3 118.6 0 118.6zm-17.1-85.3h-65.2v56.3h65.2c41.5-0.7 40.8-56.3 0-56.3zm301 115.7h-100.1c-25.9 0-37.1-31.1-34.1-41.5h134.9v-33.4h-134.9c-3-11.1 7.4-41.5 33.4-41.5h100.8v-33.4h-110.5c-106 0-105.3 186.1 0 186.1h110.5zm477.5-115.7h89.7v-33.4h-109.7c-44.5 0-80.8 28.9-80.8 74.9v112h51.9v-75.6h138.6v-37.1h-137.9c0-28.9 16.3-40.8 48.2-40.8zm832.6-33.3c-109 0-122.3 186.1 12.6 186.1h92.7v-37.1h-93.4c-51.9 0-51.9-116.4 0-116.4h93.4v-33.4zm-282.5 0h-195v186.1h51.9v-153.5h56.3v153.5h48.2v-153.5h14.8c25.9 0 48.9 11.9 48.9 42.3v111.2h51.9v-120.2c0.8-45.2-26.6-65.9-77-65.9zm111.2 186h56.3v-186h-56.3zm530.1-92.6c0 51.2-30.4 97.1-119.4 97.1s-119.4-46-119.4-97.1c0-52.6 31.9-93.4 119.4-93.4s119.4 40.7 119.4 93.4zm-55.6-0.8c0-48.9-18.5-63.8-63.8-63.8-45.2 0-63.8 14.1-63.8 63.8 0 46.7 17.8 63.8 63.8 63.8s63.8-17.1 63.8-63.8zm-814.8-6.6v100.1h-145.3c-83.8 0-86-114.9-0.7-114.9h90.5c0-11.9-11.9-37.8-43.7-37.8h-98.6v-33.4h116.4c44.3 0.7 81.4 24.4 81.4 86zm-55.6 17.8h-74.9c-30.4 0-29.7 45.2 0 45.2h74.9v-23zm-656.9 82.2h-52.6v-186h135.6c94.2 0 103.1 94.2 27.4 112.7l59.3 74.1h-61.5l-47.4-70.4h-60.1zm0-104.5h75.6c33.4 0 34.1-48.9 0-48.9h-75.6zm1808.3-81.5h-195v186.1h51.9v-153.5h56.3v153.5h48.2v-153.5h14.8c25.9 0 48.9 11.9 48.9 42.3v111.2h51.9v-120.2c0.8-45.2-25.9-65.9-77-65.9z"/>
</svg>

<?xml version="1.0" encoding="utf-8"?>
<!-- Generator: Adobe Illustrator 25.2.1, SVG Export Plug-In . SVG Version: 6.00 Build 0)  -->
<svg version="1.1" id="Layer_1" xmlns="http://www.w3.org/2000/svg" xmlns:xlink="http://www.w3.org/1999/xlink" x="0px" y="0px"
	 viewBox="0 0 3839 637.6" style="enable-background:new 0 0 3839 637.6;" xml:space="preserve">
<style type="text/css">
	.st0{fill-rule:evenodd;clip-rule:evenodd;fill:#FDDB00;}
	.st1{fill-rule:evenodd;clip-rule:evenodd;fill:#73B744;}
	.st2{fill-rule:evenodd;clip-rule:evenodd;fill:#E11F26;}
	.st3{fill-rule:evenodd;clip-rule:evenodd;fill:#25A4DD;}
	.st4{fill-rule:evenodd;clip-rule:evenodd;}
	.st5{fill:#FFFFFF;}
	.st6{fill-rule:evenodd;clip-rule:evenodd;fill:#FFFFFF;}
</style>
<g>
	<g>
		<path id="yellow_1_" class="st0" d="M520.2,457.8c164.4,0,186.2,71,186.2,96.3c0,29.8-46.4,83.5-186.2,83.5
			c-144.6,0-179.8-60.5-179.8-83.5C340.4,530,352.6,457.8,520.2,457.8z"/>
		<path id="green_1_" class="st1" d="M173.4,290.8c164.4,0,179.8,78.6,179.8,96.3s-33.6,83.5-173.4,83.5C35.2,470.6,0,404.9,0,387.1
			S5.8,290.8,173.4,290.8z"/>
		<path id="red_1_" class="st2" d="M565.2,335.8c0,0,2.7-143.4,134.9-160.6s188.1,93.2,192.7,115.6C935.5,499,745,509.5,745,509.2
			C732.9,326.2,565.2,335.8,565.2,335.8z"/>
		<path id="blue_1_" class="st3" d="M231.2,162.4c0,0,2.7-143.4,134.9-160.6S554.1,95,558.7,117.4C601.6,325.6,411,336.1,411,335.8
			C399,152.8,231.2,162.4,231.2,162.4z"/>
	</g>
	<g id="data_4_">
		<path d="M2095.2,377.7v33.4h135.7v62.3h-135.7v33.4h135.7h25.9v-33.4v-62.3v-33.4h-25.9H2095.2z M1763.1,435.6h114.2
			c0,12.6-2.2,17.1-13.3,17.1h-26.7h-17.8v12.6c0,5.9-1.5,11.9-15.6,11.9h-32.6v29.7h35.6c17.1,0,29.7-11.9,29.7-27.4v-2.2h27.4
			c19.3,0,33.4-14.1,33.4-34.8v-7.4v-26.7h-134.2V435.6z M1915.1,404.4l161.6,17.8v-28.9l-161.6-17.8V404.4z M1915.1,446.7
			l161.6,17.8v-28.2l-161.6-17.8V446.7z M1915.1,489l161.6,17.8v-28.9L1915.1,460V489z M1111.4,423.7v-12.6l0,0v-33.4H977.2v33.4
			h109.7v12.6c0,30.4-27.4,48.2-73.4,50.4H972v33.4h45.2c28.9,0,51.9-11.9,67.5-27.4l18.5,27.4h39.3l-40.8-50.4
			C1107.7,445.9,1111.4,434.1,1111.4,423.7z M2274.6,411.1h98.6v-33.4h-98.6V411.1z M2413.3,418.5c0,43.7-21.5,54.9-57.1,54.9h-81.6
			v33.4h91.2c48.9,0,69.7-31.9,69.7-69.7V377h-22.2V418.5z M1302.7,426.7c0,28.2-11.9,47.4-53.4,47.4v33.4
			c71.2,0,77.1-45.2,77.1-75.6v-54.1h-24.5L1302.7,426.7L1302.7,426.7z M1372.4,426.7v-48.9h-25.2v54.1c0,29.7,8.2,75.6,79.3,75.6
			v-33.4C1384.2,473.4,1372.4,454.8,1372.4,426.7z M1592.6,411.1H1723v20.8c0,34.1-22.2,41.5-69.7,41.5h-51.2v33.4h71.2
			c34.8,0,73.4-28.2,73.4-71.2v-25.2l0,0V377h-155v34.1H1592.6z M1129.9,456.3h117.1v-28.9h-117.1V456.3z M1431.7,456.3h117.9v-28.9
			h-117.9V456.3z M1428.7,398.5c0,13.3-11.1,24.5-24.5,24.5s-24.5-11.1-24.5-24.5c0-13.3,11.1-24.5,24.5-24.5
			C1418.3,374,1428.7,385.2,1428.7,398.5z M1415.4,398.5c0-5.9-5.2-11.1-11.1-11.1s-11.1,5.2-11.1,11.1c0,5.9,5.2,11.1,11.1,11.1
			C1410.2,408.9,1415.4,404.4,1415.4,398.5z M1023.9,239.1h83c30.4,0,31.1,45.2,0,45.2H982.4v33.4h160.9c64.5,0,65.2-108.2-3-108.2
			h-83.8c-33.4,0-33.4-41.5,0-41.5h119.4v-33.4h-152.7C952,134.6,954.2,239.1,1023.9,239.1z M1213.7,134.6v115.7
			c0,42.3,30.4,66.7,62.3,66.7h139.4V134.6h-51.9v149h-60.8c-26.7,0-40-20.8-40-37.1v-112H1213.7z M1583.7,249.5h-82.3v66.7h-51.9
			V130.9h51.9h82.3C1676.3,130.9,1680,249.5,1583.7,249.5z M1566.6,164.2h-65.2v56.3h65.2C1608.1,219.8,1607.4,164.2,1566.6,164.2z
			 M1867.6,279.9h-100.1c-25.9,0-37.1-31.1-34.1-41.5h134.9V205h-134.9c-3-11.1,7.4-41.5,33.4-41.5h100.8v-33.4h-110.5
			c-106,0-105.3,186.1,0,186.1h110.5V279.9z M2345.1,164.2h89.7v-33.4h-109.7c-44.5,0-80.8,28.9-80.8,74.9l0,0v112h51.9v-75.6h138.6
			V205h-137.9C2296.9,176.1,2313.2,164.2,2345.1,164.2z M3177.7,130.9c-109,0-122.3,186.1,12.6,186.1l0,0h92.7v-37.1h-93.4
			c-51.9,0-51.9-116.4,0-116.4h93.4v-33.4L3177.7,130.9L3177.7,130.9z M2895.2,130.9h-143.1h-51.9v186.1h51.9V163.5h56.3v153.5h48.2
			V163.5h14.8c25.9,0,48.9,11.9,48.9,42.3v111.2h51.9V196.8C2973,151.6,2945.6,130.9,2895.2,130.9z M3006.4,316.9h56.3V130.9h-56.3
			V316.9z M3536.5,224.3c0,51.2-30.4,97.1-119.4,97.1c-89,0-119.4-46-119.4-97.1c0-52.6,31.9-93.4,119.4-93.4
			C3504.6,130.9,3536.5,171.6,3536.5,224.3z M3480.9,223.5c0-48.9-18.5-63.8-63.8-63.8c-45.2,0-63.8,14.1-63.8,63.8
			c0,46.7,17.8,63.8,63.8,63.8C3463.1,287.3,3480.9,270.2,3480.9,223.5z M2666.1,216.9v40v60.1h-145.3c-83.8,0-86-114.9-0.7-114.9
			h90.5c0-11.9-11.9-37.8-43.7-37.8h-98.6v-33.4h116.4C2629,131.6,2666.1,155.3,2666.1,216.9z M2610.5,234.7h-74.9
			c-30.4,0-29.7,45.2,0,45.2h74.9v-23V234.7z M1953.6,316.9H1901V130.9h52.6l0,0h83c94.2,0,103.1,94.2,27.4,112.7l59.3,74.1h-61.5
			l-47.4-70.4h-60.1L1953.6,316.9L1953.6,316.9z M1953.6,212.4h75.6c33.4,0,34.1-48.9,0-48.9h-75.6V212.4z M3761.9,130.9h-143.1
			h-51.9v186.1h51.9V163.5h56.3v153.5h48.2V163.5h14.8c25.9,0,48.9,11.9,48.9,42.3v111.2h51.9V196.8
			C3839.7,151.6,3813,130.9,3761.9,130.9z"/>
	</g>
</g>
</svg>
